icons/animal_mosquitos_fill.svg

<svg width="48" height="48" viewBox="0 0 48 48" fill="none" xmlns="http://www.w3.org/2000/svg">
<path fill-rule="evenodd" clip-rule="evenodd" d="M32.7264 7C32.7264 6.44772 32.2786 6 31.7264 6C31.1741 6 30.7264 6.44772 30.7264 7V12.3491C30.7064 12.3679 30.6866 12.3875 30.6669 12.4078L28.5915 11.3766L27.9499 9.42871C27.7771 8.90415 27.2118 8.619 26.6872 8.79179C26.1627 8.96459 25.8775 9.52991 26.0503 10.0545L26.8226 12.3991C26.9063 12.653 27.0881 12.8628 27.3274 12.9817L29.2627 13.9434L21.2203 15.266L21.0742 15.927C20.9238 16.6071 20.9586 17.636 21.6078 18.5203C22.2881 19.4471 23.4807 20 25.2094 20C27.0748 20 28.3238 19.1542 29.0679 18.0636C29.2518 17.7941 29.4031 17.513 29.5262 17.2301C29.5803 17.9765 29.7161 18.6611 29.9121 19.2362C29.8088 19.2935 29.7139 19.3702 29.6331 19.4658L28.7787 20.4773C28.5802 20.7124 28.5009 21.0259 28.5638 21.3271L28.8836 22.8576L28.0541 23.6872C27.6635 24.0777 27.6635 24.7109 28.0541 25.1014C28.4446 25.4919 29.0778 25.4919 29.4683 25.1014L30.6802 23.8895C30.9188 23.6509 31.021 23.3081 30.952 22.9778L30.6213 21.3953L31.0513 20.8863C31.1955 20.9607 31.3457 21 31.5 21C31.8354 21 32.1516 20.8142 32.4292 20.4859L33.143 21.379L32.8089 22.9778C32.7399 23.3081 32.8421 23.6509 33.0807 23.8895L34.2926 25.1014C34.6831 25.4919 35.3163 25.4919 35.7068 25.1014C36.0973 24.7109 36.0973 24.0777 35.7068 23.6872L34.8772 22.8576L35.197 21.3271C35.258 21.0352 35.1855 20.7312 34.9993 20.4982L33.8368 19.0436C33.683 18.8512 33.4726 18.7306 33.2484 18.6867C33.3585 18.2421 33.4361 17.7511 33.4738 17.2301C33.597 17.513 33.7482 17.7941 33.9321 18.0636C34.6763 19.1542 35.9252 20 37.7906 20C39.5193 20 40.712 19.4471 41.3923 18.5203C42.0415 17.636 42.0763 16.6071 41.9259 15.927L41.7797 15.266L34.0775 13.9993L36.1253 12.9817C36.3647 12.8628 36.5464 12.653 36.6301 12.3991L37.4024 10.0545C37.5752 9.52991 37.2901 8.96459 36.7655 8.79179C36.241 8.619 35.6756 8.90416 35.5028 9.42871L34.8612 11.3766L32.7583 12.4215C32.7475 12.4269 32.7368 12.4324 32.7262 12.4381L32.7264 12.4229V7ZM39.9482 16.9916C39.913 17.1118 39.8585 17.23 39.7801 17.3368C39.5865 17.6005 39.0944 18 37.7906 18C36.6236 18 35.9772 17.5124 35.5842 16.9364C35.4296 16.7098 35.3106 16.4624 35.2216 16.2143L39.9482 16.9916ZM23.22 17.3368C23.1416 17.23 23.087 17.1118 23.0519 16.9916L27.7785 16.2143C27.6895 16.4624 27.5705 16.7098 27.4159 16.9364C27.0228 17.5124 26.3765 18 25.2094 18C23.9056 18 23.4136 17.6005 23.22 17.3368Z" fill="black"/>
<path fill-rule="evenodd" clip-rule="evenodd" d="M19 17.7849C19.5523 17.7849 20 18.2326 20 18.7849V25.7358C20.0953 25.8874 20.1857 26.0601 20.2702 26.2514L22.2288 24.0408L23.0558 21.6706C23.2378 21.1491 23.808 20.8739 24.3295 21.0558C24.8509 21.2378 25.1261 21.808 24.9442 22.3294L24.0522 24.8858C24.0094 25.0087 23.9429 25.1221 23.8566 25.2195L21.3777 28.0173L31.7632 29.2129L31.9584 29.831C32.1987 30.5916 32.1019 31.6666 31.213 32.5141C30.3634 33.3243 28.9368 33.7853 26.8144 33.7853C24.5861 33.7853 23.0519 33.0922 22.0755 32.0904C21.5361 31.5371 21.1943 30.9168 20.9991 30.3277C20.9997 30.3849 21 30.4424 21 30.5C21 31.2451 20.9461 31.9556 20.8485 32.6037L23.3582 33.5663C23.4689 33.6088 23.5713 33.6707 23.6604 33.749L25.2112 35.1127L27.181 35.6075C27.7166 35.7421 28.0418 36.2854 27.9072 36.821C27.7727 37.3566 27.2294 37.6818 26.6937 37.5472L24.489 36.9934C24.3347 36.9546 24.1918 36.8796 24.0723 36.7745L22.4744 35.3694L21.2204 34.8885L22.7754 36.1908C23.0582 36.4276 23.1877 36.8009 23.1122 37.1619L22.6816 39.2228L23.8232 40.3643C24.2137 40.7549 24.2137 41.388 23.8232 41.7786C23.4327 42.1691 22.7995 42.1691 22.409 41.7786L20.8851 40.2546C20.6465 40.0161 20.5443 39.6733 20.6133 39.343L21.032 37.3394L19.7509 36.2665C19.6148 36.1525 19.5167 36.01 19.458 35.8551C19.3109 35.9499 19.1576 36 19 36C18.8425 36 18.6892 35.9499 18.5422 35.8552C18.4977 35.9722 18.4305 36.0828 18.3401 36.1801L17.3388 37.2589L17.7743 39.343C17.8433 39.6733 17.7411 40.0161 17.5025 40.2547L15.9786 41.7786C15.5881 42.1691 14.9549 42.1691 14.5644 41.7786C14.1738 41.3881 14.1738 40.7549 14.5644 40.3644L15.7059 39.2228L15.2753 37.162C15.209 36.8446 15.3007 36.5148 15.5213 36.2772L16.7478 34.9557L15.8282 35.3495L14.3408 36.7513C14.2165 36.8685 14.0642 36.9518 13.8985 36.9934L11.6938 37.5473C11.1582 37.6818 10.6149 37.3567 10.4803 36.821C10.3458 36.2854 10.6709 35.7421 11.2066 35.6075L13.1586 35.1172L14.5856 33.7723C14.671 33.6918 14.77 33.6269 14.8779 33.5807L17.152 32.6071C17.0541 31.9581 17 31.2464 17 30.5C17 30.4424 17.0003 30.385 17.001 30.3278C16.8058 30.9169 16.4639 31.5371 15.9246 32.0904C14.9482 33.0922 13.414 33.7853 11.1857 33.7853C9.0633 33.7853 7.63672 33.3243 6.78704 32.5141C5.89819 31.6666 5.80142 30.5916 6.04167 29.831L6.23692 29.2129L16.6223 28.0173L14.1435 25.2195C14.0572 25.1221 13.9907 25.0087 13.9478 24.8858L13.0558 22.3294C12.8739 21.808 13.1491 21.2378 13.6706 21.0558C14.192 20.8739 14.7623 21.1491 14.9442 21.6706L15.7712 24.0408L17.7298 26.2514C17.8144 26.0601 17.9047 25.8874 18 25.7358V18.7849C18 18.2326 18.4477 17.7849 19 17.7849ZM29.8878 31.0102C29.8709 31.029 29.8527 31.0478 29.8329 31.0667C29.5232 31.362 28.7149 31.7853 26.8144 31.7853C25.0199 31.7853 24.0398 31.2404 23.5077 30.6944C23.3626 30.5456 23.2441 30.39 23.1482 30.2344L29.8878 31.0102ZM8.16722 31.0667C8.14742 31.0478 8.12914 31.029 8.11227 31.0102L14.8519 30.2344C14.756 30.39 14.6374 30.5456 14.4924 30.6944C13.9602 31.2404 12.9802 31.7853 11.1857 31.7853C9.28522 31.7853 8.47689 31.362 8.16722 31.0667Z" fill="black"/>
</svg>

<svg
  xmlns="http://www.w3.org/2000/svg"
  width="24"
  height="24"
  viewBox="0 0 24 24"
  fill="none"
  stroke="currentColor"
  stroke-width="2"
  stroke-linecap="round"
  stroke-linejoin="round"
>
  <path
    fill-rule="evenodd"
    d="M32.726 7a1 1 0 0 0-2 0v5.35q-.03.027-.06.058l-2.075-1.031-.641-1.948a1 1 0 1 0-1.9.626l.773 2.344a1 1 0 0 0 .504.583l1.936.961-8.043 1.323-.146.661c-.15.68-.115 1.709.534 2.593.68.927 1.873 1.48 3.601 1.48 1.866 0 3.115-.846 3.859-1.936.184-.27.335-.551.458-.834.054.747.19 1.431.386 2.006a1 1 0 0 0-.279.23l-.854 1.011a1 1 0 0 0-.215.85l.32 1.53-.83.83a1 1 0 1 0 1.414 1.414l1.212-1.211a1 1 0 0 0 .272-.912l-.33-1.583.43-.509A1 1 0 0 0 31.5 21c.335 0 .652-.186.93-.514l.713.893-.334 1.599a1 1 0 0 0 .272.912l1.212 1.211a1 1 0 0 0 1.414-1.414l-.83-.83.32-1.53a1 1 0 0 0-.198-.829l-1.162-1.454a1 1 0 0 0-.589-.357c.11-.445.188-.936.226-1.457.123.283.274.564.458.834.744 1.09 1.993 1.936 3.859 1.936 1.728 0 2.921-.553 3.601-1.48.65-.884.684-1.913.534-2.593l-.146-.661-7.703-1.267 2.048-1.017a1 1 0 0 0 .505-.583l.772-2.344a1 1 0 1 0-1.9-.626l-.64 1.948-2.104 1.044-.032.017V7m7.222 9.992c-.035.12-.09.238-.168.345-.194.264-.686.663-1.99.663-1.166 0-1.813-.488-2.206-1.064a3.2 3.2 0 0 1-.362-.722zm-16.728.345a1.1 1.1 0 0 1-.168-.345l4.727-.778a3.2 3.2 0 0 1-.363.722c-.393.576-1.04 1.064-2.207 1.064-1.303 0-1.795-.4-1.989-.663"
    clip-rule="evenodd"
  />
  <path
    fill-rule="evenodd"
    d="M19 17.785a1 1 0 0 1 1 1v6.95q.143.229.27.516l1.959-2.21.827-2.37a1 1 0 0 1 1.888.658l-.892 2.557a1 1 0 0 1-.195.334l-2.48 2.797 10.386 1.196.195.618c.24.76.144 1.836-.745 2.683-.85.81-2.276 1.271-4.399 1.271-2.228 0-3.762-.693-4.738-1.695a4.6 4.6 0 0 1-1.077-1.762L21 30.5c0 .745-.054 1.456-.151 2.104l2.51.962q.166.065.301.183l1.551 1.364 1.97.495a1 1 0 0 1-.487 1.94l-2.205-.555a1 1 0 0 1-.417-.218l-1.598-1.406-1.254-.48 1.555 1.302a1 1 0 0 1 .337.97l-.43 2.062 1.141 1.141a1 1 0 0 1-1.414 1.415l-1.524-1.524a1 1 0 0 1-.272-.912l.419-2.004-1.281-1.072a1 1 0 0 1-.293-.412A.84.84 0 0 1 19 36a.84.84 0 0 1-.458-.145 1 1 0 0 1-.202.325L17.34 37.26l.435 2.084a1 1 0 0 1-.271.912l-1.524 1.524a1 1 0 0 1-1.415-1.415l1.142-1.141-.43-2.061a1 1 0 0 1 .245-.885l1.227-1.321-.92.393-1.487 1.402a1 1 0 0 1-.442.242l-2.205.554a1 1 0 0 1-.487-1.94l1.952-.49 1.427-1.345a1 1 0 0 1 .292-.191l2.274-.974a14 14 0 0 1-.151-2.28 4.6 4.6 0 0 1-1.076 1.763c-.977 1.002-2.511 1.695-4.74 1.695-2.122 0-3.548-.46-4.398-1.27-.889-.848-.986-1.923-.745-2.684l.195-.618 10.385-1.196-2.479-2.797a1 1 0 0 1-.195-.334l-.892-2.557a1 1 0 0 1 1.888-.658l.827 2.37 1.959 2.21q.127-.287.27-.515v-6.951a1 1 0 0 1 1-1M29.888 31.01l-.055.057c-.31.295-1.118.718-3.019.718-1.794 0-2.774-.545-3.306-1.09a2.7 2.7 0 0 1-.36-.46zm-21.72.057-.056-.057 6.74-.776a2.7 2.7 0 0 1-.36.46c-.532.546-1.512 1.091-3.306 1.091-1.9 0-2.71-.423-3.019-.718"
    clip-rule="evenodd"
  />
</svg>
